src/assets/coupon.svg

<svg width="312" height="82" viewBox="0 0 312 82" version="1.1" xmlns="http://www.w3.org/2000/svg" xmlns:xlink="http://www.w3.org/1999/xlink">
    <g id="Page-1" stroke="none" stroke-width="1" fill="none" fill-rule="evenodd">
        <path d="M307,0 C309.761424,-5.07265313e-16 312,2.23857625 312,5 L312,32 C307.029437,32 303,36.0294373 303,41 C303,45.9705627 307.029437,50 312,50 L312,77 C312,79.7614237 309.761424,82 307,82 L5,82 C2.23857625,82 3.38176876e-16,79.7614237 0,77 L0,50 C4.97056275,50 9,45.9705627 9,41 C9,36.0294373 4.97056275,32 0,32 L0,5 C-3.38176876e-16,2.23857625 2.23857625,5.07265313e-16 5,0 L307,0 Z M276,74.75 C275.585786,74.75 275.25,75.0857864 275.25,75.5 L275.25,77.5 C275.25,77.9142136 275.585786,78.25 276,78.25 C276.414214,78.25 276.75,77.9142136 276.75,77.5 L276.75,75.5 C276.75,75.0857864 276.414214,74.75 276,74.75 Z M267,5 L5,5 L5,27.9195466 C10.263098,29.93259 14,35.0298949 14,41 C14,46.8595476 10.4002203,51.8783216 5.29081013,53.9654586 L5,54.0804534 L5,77 L267,77 L267,76 L266,76 L266,6 L267,6 L267,5 Z M306,5 L285,5 L285,6 L305,6 L305,27.73 L304.66813,27.9107985 C300.092956,30.475773 297.130852,35.2817732 297.004228,40.6418586 L297,41 L297.003886,41.3433996 C297.125365,46.7068273 300.085905,51.5172362 304.661509,54.0854875 L304.968929,54.253364 L305,54.269 L305,76 L285,76 L285,77 L306,77 L306.000302,53.6528812 C301.270245,51.406015 298,46.5849108 298,41 C298,35.529067 301.138127,30.7910828 305.712546,28.4878831 L306.000302,28.3471188 L306,5 Z M266,6 L266,76 L5.999,76 L5.999,54.75 L6.28340974,54.6245552 C11.4265607,52.2520324 14.8632164,47.1336727 14.9960098,41.3479289 L15,41 L14.9961616,40.6587473 C14.8684657,34.9860346 11.5647089,29.9540023 6.59005532,27.5211318 L6.28340974,27.3754448 L5.999,27.249 L5.999,6 L266,6 Z M276,64.75 C275.585786,64.75 275.25,65.0857864 275.25,65.5 L275.25,70.5 C275.25,70.9142136 275.585786,71.25 276,71.25 C276.414214,71.25 276.75,70.9142136 276.75,70.5 L276.75,65.5 C276.75,65.0857864 276.414214,64.75 276,64.75 Z M276,54.75 C275.585786,54.75 275.25,55.0857864 275.25,55.5 L275.25,60.5 C275.25,60.9142136 275.585786,61.25 276,61.25 C276.414214,61.25 276.75,60.9142136 276.75,60.5 L276.75,55.5 C276.75,55.0857864 276.414214,54.75 276,54.75 Z M276,44.75 C275.585786,44.75 275.25,45.0857864 275.25,45.5 L275.25,50.5 C275.25,50.9142136 275.585786,51.25 276,51.25 C276.414214,51.25 276.75,50.9142136 276.75,50.5 L276.75,45.5 C276.75,45.0857864 276.414214,44.75 276,44.75 Z M276,34.75 C275.585786,34.75 275.25,35.0857864 275.25,35.5 L275.25,40.5 C275.25,40.9142136 275.585786,41.25 276,41.25 C276.414214,41.25 276.75,40.9142136 276.75,40.5 L276.75,35.5 C276.75,35.0857864 276.414214,34.75 276,34.75 Z M276,24.75 C275.585786,24.75 275.25,25.0857864 275.25,25.5 L275.25,30.5 C275.25,30.9142136 275.585786,31.25 276,31.25 C276.414214,31.25 276.75,30.9142136 276.75,30.5 L276.75,25.5 C276.75,25.0857864 276.414214,24.75 276,24.75 Z M276,14.75 C275.585786,14.75 275.25,15.0857864 275.25,15.5 L275.25,20.5 C275.25,20.9142136 275.585786,21.25 276,21.25 C276.414214,21.25 276.75,20.9142136 276.75,20.5 L276.75,15.5 C276.75,15.0857864 276.414214,14.75 276,14.75 Z M276,4.75 C275.585786,4.75 275.25,5.08578644 275.25,5.5 L275.25,10.5 C275.25,10.9142136 275.585786,11.25 276,11.25 C276.414214,11.25 276.75,10.9142136 276.75,10.5 L276.75,5.5 C276.75,5.08578644 276.414214,4.75 276,4.75 Z" id="Combined-Shape" fill="#ff0571"></path>
    </g>
</svg>

<svg width="312" height="82" xmlns="http://www.w3.org/2000/svg"><path d="M307 0a5 5 0 0 1 5 5v27a9 9 0 1 0 0 18v27a5 5 0 0 1-5 5H5a5 5 0 0 1-5-5V50a9 9 0 0 0 0-18V5a5 5 0 0 1 5-5h302Zm-31 74.75a.75.75 0 0 0-.75.75v2a.75.75 0 1 0 1.5 0v-2a.75.75 0 0 0-.75-.75ZM267 5H5v22.92c5.263 2.013 9 7.11 9 13.08 0 5.86-3.6 10.878-8.71 12.965L5 54.08V77h262v-1h-1V6h1V5Zm39 0h-21v1h20v21.73l-.332.18a14.997 14.997 0 0 0-7.664 12.732L297 41l.004.343a14.997 14.997 0 0 0 7.658 12.742l.307.168.031.016V76h-20v1h21V53.653c-4.73-2.247-8-7.068-8-12.653 0-5.47 3.138-10.209 7.713-12.512l.287-.14V5Zm-40 1v70H5.999V54.75l.284-.125a15.004 15.004 0 0 0 8.713-13.277L15 41l-.004-.341A15.004 15.004 0 0 0 6.59 27.52l-.307-.146L6 27.25V6H266Zm10 58.75a.75.75 0 0 0-.75.75v5a.75.75 0 1 0 1.5 0v-5a.75.75 0 0 0-.75-.75Zm0-10a.75.75 0 0 0-.75.75v5a.75.75 0 1 0 1.5 0v-5a.75.75 0 0 0-.75-.75Zm0-10a.75.75 0 0 0-.75.75v5a.75.75 0 1 0 1.5 0v-5a.75.75 0 0 0-.75-.75Zm0-10a.75.75 0 0 0-.75.75v5a.75.75 0 1 0 1.5 0v-5a.75.75 0 0 0-.75-.75Zm0-10a.75.75 0 0 0-.75.75v5a.75.75 0 1 0 1.5 0v-5a.75.75 0 0 0-.75-.75Zm0-10a.75.75 0 0 0-.75.75v5a.75.75 0 1 0 1.5 0v-5a.75.75 0 0 0-.75-.75Zm0-10a.75.75 0 0 0-.75.75v5a.75.75 0 1 0 1.5 0v-5a.75.75 0 0 0-.75-.75Z" fill="#ff0571" fill-rule="evenodd"/></svg>
